svg/design/layout_rightbar_open_line.svg

<?xml version="1.0" encoding="UTF-8"?>
<svg width="24px" height="24px" viewBox="0 0 24 24" version="1.1" xmlns="http://www.w3.org/2000/svg" xmlns:xlink="http://www.w3.org/1999/xlink">
    <title>layout_rightbar_open_expand_line</title>
    <g id="Icon" stroke="none" stroke-width="1" fill="none" fill-rule="evenodd">
        <g id="Design" transform="translate(-672.000000, -384.000000)" fill-rule="nonzero">
            <g id="layout_rightbar_open_expand_line" transform="translate(672.000000, 384.000000)">
                <path d="M24,0 L24,24 L0,24 L0,0 L24,0 Z M12.5935,23.2578 L12.5819,23.2595 L12.5109,23.295 L12.4919,23.2987 L12.4767,23.295 L12.4057,23.2595 C12.3958,23.2564 12.387,23.259 12.3821,23.2649 L12.378,23.2758 L12.3609,23.7031 L12.3659,23.7235 L12.3769,23.7357 L12.4805,23.8097 L12.4953,23.8136 L12.5071,23.8097 L12.6107,23.7357 L12.6233,23.7197 L12.6267,23.7031 L12.6096,23.2758 C12.6076,23.2657 12.601,23.2593 12.5935,23.2578 Z M12.8584,23.1453 L12.8445,23.1473 L12.6598,23.2397 L12.6499,23.2499 L12.6472,23.2611 L12.6651,23.6906 L12.6699,23.7034 L12.6784,23.7105 L12.8793,23.8032 C12.8914,23.8069 12.9022,23.803 12.9078,23.7952 L12.9118,23.7812 L12.8777,23.1665 C12.8753,23.1546 12.8674,23.147 12.8584,23.1453 Z M12.143,23.1473 C12.1332,23.1424 12.1222,23.1453 12.1156,23.1526 L12.1099,23.1665 L12.0758,23.7812 C12.0751,23.7927 12.0828,23.8019 12.0926,23.8046 L12.1083,23.8032 L12.3092,23.7105 L12.3186,23.7024 L12.3225,23.6906 L12.3404,23.2611 L12.3372,23.2485 L12.3278,23.2397 L12.143,23.1473 Z" id="MingCute"></path>
                <path d="M19,3 C20.1046,3 21,3.89543 21,5 L21,19 C21,20.1046 20.1046,21 19,21 L5,21 C3.89543,21 3,20.1046 3,19 L3,5 C3,3.89543 3.89543,3 5,3 L19,3 Z M14,5 L5,5 L5,19 L14,19 L14,5 Z M19,5 L16,5 L16,19 L19,19 L19,5 Z M9.79312,9.17157 C10.1836,8.78105 10.8168,8.78105 11.2073,9.17157 C11.5678538,9.53205923 11.5955888,10.0993205 11.2905047,10.4915973 L11.2073,10.5858 L9.79312,12 L11.2073,13.4142 C11.5979,13.8047 11.5979,14.4379 11.2073,14.8284 C10.8468385,15.1889538 10.2795793,15.2166888 9.88731846,14.9116047 L9.79312,14.8284 L7.6718,12.7071 C7.31132,12.3466385 7.28359077,11.7793793 7.58861231,11.3871027 L7.6718,11.2929 L9.79312,9.17157 Z" id="形状" fill="#09244B"></path>
            </g>
        </g>
    </g>
</svg>

<svg xmlns="http://www.w3.org/2000/svg" width="24" height="24"><g fill="none" fill-rule="nonzero"><path d="M24 0v24H0V0h24ZM12.594 23.258l-.012.002-.071.035-.02.004-.014-.004-.071-.036c-.01-.003-.019 0-.024.006l-.004.01-.017.428.005.02.01.013.104.074.015.004.012-.004.104-.074.012-.016.004-.017-.017-.427c-.002-.01-.009-.017-.016-.018Zm.264-.113-.014.002-.184.093-.01.01-.003.011.018.43.005.012.008.008.201.092c.012.004.023 0 .029-.008l.004-.014-.034-.614c-.003-.012-.01-.02-.02-.022Zm-.715.002a.023.023 0 0 0-.027.006l-.006.014-.034.614c0 .012.007.02.017.024l.015-.002.201-.093.01-.008.003-.011.018-.43-.003-.012-.01-.01-.184-.092Z"/><path fill="#09244B" d="M19 3a2 2 0 0 1 2 2v14a2 2 0 0 1-2 2H5a2 2 0 0 1-2-2V5a2 2 0 0 1 2-2h14Zm-5 2H5v14h9V5Zm5 0h-3v14h3V5ZM9.793 9.172a1 1 0 0 1 1.498 1.32l-.084.094L9.793 12l1.414 1.414a1 1 0 0 1-1.32 1.498l-.094-.084-2.121-2.12a1 1 0 0 1-.083-1.32l.083-.095 2.121-2.121Z"/></g></svg>
